images/cvlinks/telegram.svg

<svg width="12" height="10" viewBox="0 0 12 10" fill="none" xmlns="http://www.w3.org/2000/svg">
    <path id="Vector"
          d="M11.19 0.0657523L0.560326 4.13868C-0.165107 4.4282 -0.16091 4.83031 0.42723 5.00962L3.1563 5.85555L9.47056 1.89699C9.76913 1.71649 10.0419 1.81359 9.81769 2.01137L4.70189 6.599H4.70069L4.70189 6.5996L4.51364 9.39471C4.78942 9.39471 4.91113 9.26901 5.0658 9.12068L6.39137 7.83988L9.14861 9.86354C9.65702 10.1417 10.0221 9.99877 10.1486 9.3959L11.9586 0.920013C12.1439 0.181918 11.675 -0.152281 11.19 0.0657523Z"
          fill="#2F495E"/>
</svg>

<svg width="12" height="10" viewBox="0 0 12 10" fill="none" xmlns="http://www.w3.org/2000/svg"><path id="Vector" d="M11.19.066L.56 4.139c-.725.29-.72.691-.133.87l2.73.847L9.47 1.897c.298-.18.57-.083.347.114L4.702 6.6H4.7l-.187 2.796c.275 0 .397-.126.552-.274L6.39 7.84l2.76 2.024c.508.278.873.135 1-.468L11.959.92c.185-.738-.284-1.072-.769-.854z" fill="#2F495E"/></svg>
